X:64
%
T:The Maid at the Well
C:Traditional
L:1/8
M:6/8
Q:1/4=80
K:G treble
%
|: A | "G" GED DED | "G" GEG  c2 e | "D" dcB AGA | "G" BAG E2 A | 
"G" GED DED | "G" GEG  c2 e | "D" dcB AGA | "G" AGG G2 :|
|: d | "G" gdd edd | "G" gdB c2 e | "D" dcB AGA | "G" BAG E2 d |
"G" gdd edd | "G" gdB c2 e | "D" dcB AGA | "G" BGG G2 :|



